fabric/Nueva carpeta/express.svg

<?xml version="1.0" encoding="UTF-8" standalone="no"?>
<!-- Created with Inkscape (http://www.inkscape.org/) -->

<svg
   xmlns:dc="http://purl.org/dc/elements/1.1/"
   xmlns:cc="http://creativecommons.org/ns#"
   xmlns:rdf="http://www.w3.org/1999/02/22-rdf-syntax-ns#"
   xmlns:svg="http://www.w3.org/2000/svg"
   xmlns="http://www.w3.org/2000/svg"
   xmlns:sodipodi="http://sodipodi.sourceforge.net/DTD/sodipodi-0.dtd"
   xmlns:inkscape="http://www.inkscape.org/namespaces/inkscape"
   width="128"
   height="128"
   viewBox="0 0 128 128"
   id="svg2"
   version="1.1"
   inkscape:version="0.91 r13725"
   sodipodi:docname="express.svg">
  <defs
     id="defs4" />
  <sodipodi:namedview
     id="base"
     pagecolor="#ffffff"
     bordercolor="#666666"
     borderopacity="1.0"
     inkscape:pageopacity="0.0"
     inkscape:pageshadow="2"
     inkscape:zoom="1.979899"
     inkscape:cx="69.185136"
     inkscape:cy="133.67911"
     inkscape:document-units="px"
     inkscape:current-layer="layer1"
     showgrid="false"
     units="px"
     inkscape:window-width="1920"
     inkscape:window-height="1017"
     inkscape:window-x="-8"
     inkscape:window-y="-8"
     inkscape:window-maximized="1" />
  <metadata
     id="metadata7">
    <rdf:RDF>
      <cc:Work
         rdf:about="">
        <dc:format>image/svg+xml</dc:format>
        <dc:type
           rdf:resource="http://purl.org/dc/dcmitype/StillImage" />
        <dc:title></dc:title>
      </cc:Work>
    </rdf:RDF>
  </metadata>
  <g
     inkscape:label="Capa 1"
     inkscape:groupmode="layer"
     id="layer1"
     transform="translate(0,-924.36216)">
    <g
       transform="matrix(1,0,0,1.7685468,-0.18840634,-762.84856)"
       id="layer1-1"
       inkscape:label="Capa 1">
      <g
         inkscape:label="Capa 1"
         id="layer1-0"
         transform="matrix(0.98809577,0,0,0.91556176,0.93688276,80.387908)">
        <g
           id="g4138"
           transform="matrix(0.33511645,0,0,0.42534874,-9.8801431,957.74464)">
          <path
             id="path4140"
             d="m 43.02,42.01 c 9.94,-7.66 25.65,-6.5 34.09,2.89 6.15,6.62 7.92,15.98 7.97,24.74 -17.24,0.01 -34.48,-0.02 -51.73,0.02 0.38,9.68 2.78,20.92 11.82,26.21 10.75,5.87 26.81,3.71 33.36,-7.41 2.31,-3.38 1.88,-8.37 5.69,-10.68 -0.45,6.03 -2.68,12.09 -7.13,16.31 -8.04,7.8 -20.91,8.98 -31.02,4.99 C 36.35,94.95 31.98,84.02 31.27,74.11 30.05,62.46 33.34,49.39 43.02,42.01 m -0.53,3.51 c -5.98,5.57 -8.4,13.79 -9.15,21.7 16.44,0.02 32.89,0.03 49.33,0 C 82.33,59.86 80.58,52.13 75.45,46.56 67.23,37.33 51.31,36.92 42.49,45.52 Z"
             inkscape:connector-curvature="0"
             style="opacity:1;fill:#3b4854" />
          <path
             id="path4142"
             d="m 159.76,41.73 c 10.78,-8.15 28.23,-5.75 35.56,5.92 8.1,12.81 7.87,30.63 -0.41,43.31 -8.28,12.66 -28.6,13.79 -38.72,2.83 -3.01,-3.12 -4.64,-7.21 -6.19,-11.18 0,12.84 0,25.68 0,38.52 -0.6,-0.02 -1.8,-0.04 -2.4,-0.05 -0.01,-27.55 0.01,-55.1 -0.02,-82.65 0.59,-0.07 1.77,-0.2 2.36,-0.26 0.1,5.89 0.05,11.78 0.06,17.67 2.05,-5.39 4.98,-10.68 9.76,-14.11 m 8.58,-1.46 c -20.1,6.37 -23.26,34.97 -11.96,50.33 8.7,11.24 28.45,11.35 36.42,-0.8 8.35,-12.7 8.27,-31.27 -1.36,-43.27 -5.51,-6.56 -15.06,-8.54 -23.1,-6.26 z"
             inkscape:connector-curvature="0"
             style="opacity:1;fill:#3b4854" />
          <path
             id="path4144"
             d="m 215.99,53.79 c 2.46,-11.08 13.59,-17.59 24.48,-17 0,0.6 0.01,1.8 0.01,2.4 -11.9,-1.08 -22.68,8.29 -23.91,20.03 -1.24,13.54 -0.26,27.19 -0.57,40.78 -0.6,0 -1.8,0 -2.4,0 -0.01,-20.53 0.01,-41.05 -0.02,-61.57 0.59,-0.07 1.77,-0.2 2.36,-0.26 0.09,5.2 0.06,10.41 0.05,15.62 z"
             inkscape:connector-curvature="0"
             style="opacity:1;fill:#3b4854" />
          <path
             id="path4146"
             d="m 255.02,42.01 c 9.94,-7.66 25.65,-6.5 34.09,2.89 6.15,6.62 7.92,15.98 7.97,24.74 -17.24,0.01 -34.48,-0.02 -51.73,0.02 0.38,9.67 2.78,20.92 11.81,26.2 10.75,5.88 26.82,3.73 33.36,-7.4 2.32,-3.39 1.89,-8.37 5.7,-10.68 -0.45,6.26 -2.89,12.56 -7.64,16.8 -7.89,7.21 -20.01,8.29 -29.8,4.8 -9.82,-3.74 -14.56,-14.47 -15.42,-24.32 -1.45,-11.93 1.71,-25.46 11.66,-33.05 m -0.53,3.51 c -5.98,5.57 -8.4,13.8 -9.15,21.7 16.44,0.02 32.89,0.03 49.33,0 -0.34,-7.36 -2.09,-15.09 -7.22,-20.66 -8.22,-9.23 -24.15,-9.64 -32.96,-1.04 z"
             inkscape:connector-curvature="0"
             style="opacity:1;fill:#3b4854" />
          <path
             id="path4148"
             d="m 314.01,41.04 c 7.79,-5.26 18.34,-5.17 26.9,-1.92 7.35,2.68 11.3,11.09 9.71,18.58 -3.19,-4.1 -2.18,-10.33 -6.62,-13.7 -7.21,-5.86 -18.08,-5.91 -26.36,-2.4 -7.92,3.13 -9.99,15.53 -2.6,20.29 10.22,5.46 22.71,5.11 32.55,11.44 8.36,5.93 6.22,20.17 -2.65,24.57 -9.13,4.73 -20.71,4.46 -29.91,0.09 -7.24,-3.67 -9.74,-12.38 -9.3,-19.97 3.28,1.7 2.29,5.88 3.48,8.84 1.81,7.04 9,11.04 15.82,11.78 7.58,0.83 16.43,0.23 22.06,-5.56 5.2,-5.22 4.24,-15.2 -2.44,-18.75 -9.96,-5.54 -22.33,-4.8 -32.03,-10.99 -6.87,-5.44 -5.83,-17.55 1.39,-22.3 z"
             inkscape:connector-curvature="0"
             style="opacity:1;fill:#3b4854" />
          <path
             id="path4150"
             d="m 372.01,41.04 c 7.79,-5.26 18.35,-5.17 26.91,-1.92 7.34,2.68 11.29,11.09 9.7,18.58 -3.19,-4.1 -2.18,-10.33 -6.62,-13.7 -7.22,-5.87 -18.09,-5.9 -26.37,-2.4 -7.91,3.15 -9.97,15.53 -2.59,20.29 10.21,5.46 22.71,5.11 32.55,11.44 8.37,5.93 6.21,20.17 -2.66,24.58 -9.12,4.71 -20.69,4.45 -29.89,0.08 -7.25,-3.67 -9.75,-12.38 -9.31,-19.97 3.28,1.7 2.29,5.88 3.48,8.84 1.81,7.04 8.99,11.04 15.82,11.78 7.58,0.83 16.43,0.23 22.06,-5.56 5.2,-5.21 4.24,-15.19 -2.44,-18.74 -9.96,-5.55 -22.34,-4.81 -32.03,-11 -6.87,-5.44 -5.83,-17.56 1.39,-22.3 z"
             inkscape:connector-curvature="0"
             style="opacity:1;fill:#3b4854" />
          <path
             id="path4152"
             d="m 90.48,38.32 c 0.79,0.01 2.37,0.02 3.17,0.03 6.86,9.32 13.79,18.61 20.71,27.9 7.07,-9.26 14.14,-18.53 21.13,-27.85 0.75,-0.03 2.25,-0.1 3,-0.13 -7.47,9.97 -15.06,19.85 -22.56,29.8 8.22,10.68 16.51,21.29 24.72,31.98 -0.8,-0.05 -2.4,-0.14 -3.2,-0.19 -7.6,-10.06 -15.41,-19.97 -23.08,-29.97 -7.21,9.3 -14.34,18.66 -21.51,28 -1.03,1.61 -2.94,2.06 -4.61,2.68 7.77,-11.16 16.5,-21.61 24.66,-32.49 C 105.44,58.16 97.95,48.25 90.48,38.32 Z"
             inkscape:connector-curvature="0"
             style="opacity:1;fill:#3b4854" />
        </g>
      </g>
    </g>
  </g>
</svg>

<svg xmlns="http://www.w3.org/2000/svg" viewBox="30 0 383 141"><g><path fill="#3b4854" opacity="1.00" d=" M 43.02 42.01 C 52.96 34.35 68.67 35.51 77.11 44.90 C 83.26 51.52 85.03 60.88 85.08 69.64 C 67.84 69.65 50.60 69.62 33.35 69.66 C 33.73 79.34 36.13 90.58 45.17 95.87 C 55.92 101.74 71.98 99.58 78.53 88.46 C 80.84 85.08 80.41 80.09 84.22 77.78 C 83.77 83.81 81.54 89.87 77.09 94.09 C 69.05 101.89 56.18 103.07 46.07 99.08 C 36.35 94.95 31.98 84.02 31.27 74.11 C 30.05 62.46 33.34 49.39 43.02 42.01 M 42.49 45.52 C 36.51 51.09 34.09 59.31 33.34 67.22 C 49.78 67.24 66.23 67.25 82.67 67.22 C 82.33 59.86 80.58 52.13 75.45 46.56 C 67.23 37.33 51.31 36.92 42.49 45.52 Z"/><path fill="#3b4854" opacity="1.00" d=" M 159.76 41.73 C 170.54 33.58 187.99 35.98 195.32 47.65 C 203.42 60.46 203.19 78.28 194.91 90.96 C 186.63 103.62 166.31 104.75 156.19 93.79 C 153.18 90.67 151.55 86.58 150.00 82.61 C 150.00 95.45 150.00 108.29 150.00 121.13 C 149.40 121.11 148.20 121.09 147.60 121.08 C 147.59 93.53 147.61 65.98 147.58 38.43 C 148.17 38.36 149.35 38.23 149.94 38.17 C 150.04 44.06 149.99 49.95 150.00 55.84 C 152.05 50.45 154.98 45.16 159.76 41.73 M 168.34 40.27 C 148.24 46.64 145.08 75.24 156.38 90.60 C 165.08 101.84 184.83 101.95 192.80 89.80 C 201.15 77.10 201.07 58.53 191.44 46.53 C 185.93 39.97 176.38 37.99 168.34 40.27 Z"/><path fill="#3b4854" opacity="1.00" d=" M 215.99 53.79 C 218.45 42.71 229.58 36.20 240.47 36.79 C 240.47 37.39 240.48 38.59 240.48 39.19 C 228.58 38.11 217.80 47.48 216.57 59.22 C 215.33 72.76 216.31 86.41 216.00 100.00 C 215.40 100.00 214.20 100.00 213.60 100.00 C 213.59 79.47 213.61 58.95 213.58 38.43 C 214.17 38.36 215.35 38.23 215.94 38.17 C 216.03 43.37 216.00 48.58 215.99 53.79 Z"/><path fill="#3b4854" opacity="1.00" d=" M 255.02 42.01 C 264.96 34.35 280.67 35.51 289.11 44.90 C 295.26 51.52 297.03 60.88 297.08 69.64 C 279.84 69.65 262.60 69.62 245.35 69.66 C 245.73 79.33 248.13 90.58 257.16 95.86 C 267.91 101.74 283.98 99.59 290.52 88.46 C 292.84 85.07 292.41 80.09 296.22 77.78 C 295.77 84.04 293.33 90.34 288.58 94.58 C 280.69 101.79 268.57 102.87 258.78 99.38 C 248.96 95.64 244.22 84.91 243.36 75.06 C 241.91 63.13 245.07 49.60 255.02 42.01 M 254.49 45.52 C 248.51 51.09 246.09 59.32 245.34 67.22 C 261.78 67.24 278.23 67.25 294.67 67.22 C 294.33 59.86 292.58 52.13 287.45 46.56 C 279.23 37.33 263.30 36.92 254.49 45.52 Z"/><path fill="#3b4854" opacity="1.00" d=" M 314.01 41.04 C 321.80 35.78 332.35 35.87 340.91 39.12 C 348.26 41.80 352.21 50.21 350.62 57.70 C 347.43 53.60 348.44 47.37 344.00 44.00 C 336.79 38.14 325.92 38.09 317.64 41.60 C 309.72 44.73 307.65 57.13 315.04 61.89 C 325.26 67.35 337.75 67.00 347.59 73.33 C 355.95 79.26 353.81 93.50 344.94 97.90 C 335.81 102.63 324.23 102.36 315.03 97.99 C 307.79 94.32 305.29 85.61 305.73 78.02 C 309.01 79.72 308.02 83.90 309.21 86.86 C 311.02 93.90 318.21 97.90 325.03 98.64 C 332.61 99.47 341.46 98.87 347.09 93.08 C 352.29 87.86 351.33 77.88 344.65 74.33 C 334.69 68.79 322.32 69.53 312.62 63.34 C 305.75 57.90 306.79 45.79 314.01 41.04 Z"/><path fill="#3b4854" opacity="1.00" d=" M 372.01 41.04 C 379.80 35.78 390.36 35.87 398.92 39.12 C 406.26 41.80 410.21 50.21 408.62 57.70 C 405.43 53.60 406.44 47.37 402.00 44.00 C 394.78 38.13 383.91 38.10 375.63 41.60 C 367.72 44.75 365.66 57.13 373.04 61.89 C 383.25 67.35 395.75 67.00 405.59 73.33 C 413.96 79.26 411.80 93.50 402.93 97.91 C 393.81 102.62 382.24 102.36 373.04 97.99 C 365.79 94.32 363.29 85.61 363.73 78.02 C 367.01 79.72 366.02 83.90 367.21 86.86 C 369.02 93.90 376.20 97.90 383.03 98.64 C 390.61 99.47 399.46 98.87 405.09 93.08 C 410.29 87.87 409.33 77.89 402.65 74.34 C 392.69 68.79 380.31 69.53 370.62 63.34 C 363.75 57.90 364.79 45.78 372.01 41.04 Z"/><path fill="#3b4854" opacity="1.00" d=" M 90.48 38.32 C 91.27 38.33 92.85 38.34 93.65 38.35 C 100.51 47.67 107.44 56.96 114.36 66.25 C 121.43 56.99 128.50 47.72 135.49 38.40 C 136.24 38.37 137.74 38.30 138.49 38.27 C 131.02 48.24 123.43 58.12 115.93 68.07 C 124.15 78.75 132.44 89.36 140.65 100.05 C 139.85 100.00 138.25 99.91 137.45 99.86 C 129.85 89.80 122.04 79.89 114.37 69.89 C 107.16 79.19 100.03 88.55 92.86 97.89 C 91.83 99.50 89.92 99.95 88.25 100.57 C 96.02 89.41 104.75 78.96 112.91 68.08 C 105.44 58.16 97.95 48.25 90.48 38.32 Z"/></g></svg>
